X:1
T: Janet's Reel
C:
R:Reel
Q: 232
K:A
M:4/4
L:1/8
|:E2|c2 cB A2 AG|FE FA E2 ED|CE Ac ec BA|c2 B2 B2 E2|
c2 cB A2 AG|FE FA E2 ED|CE Ac dc ed|c2 A2 A2:|
|:E2|A2 AE CA, CE|FD FA EC EA|FD FA EC EA|G2 B2 B2 E2|
A2 AE CA, CE|FD FA EC EA|GB EG BG eB|c2 A2 A2:|
e2|ae cA EC A,E|DC DF EC EA|DC DF EC EA|G2 B2 B2 e2|
ae cA EC A,E|DC DF EC EA|GB EG BE ed|c2 A2 A2||
